app/images/icons/briefcase.svg

<?xml version="1.0" encoding="utf-8"?>
<!-- Generated by IcoMoon.io -->
<!DOCTYPE svg PUBLIC "-//W3C//DTD SVG 1.1//EN" "http://www.w3.org/Graphics/SVG/1.1/DTD/svg11.dtd">
<svg version="1.1" xmlns="http://www.w3.org/2000/svg" xmlns:xlink="http://www.w3.org/1999/xlink" width="16" height="16" viewBox="0 0 16 16">
<path fill="#444444" d="M15 4h-4v-1c0-0.55-0.45-1-1-1h-4c-0.55 0-1 0.45-1 1v1h-4c-0.55 0-1 0.45-1 1v9c0 0.55 0.45 1 1 1h14c0.55 0 1-0.45 1-1v-9c0-0.55-0.45-1-1-1zM6 3.002c0.001-0.001 0.001-0.001 0.002-0.002h3.996c0.001 0.001 0.001 0.001 0.002 0.002v0.998h-4v-0.998zM15 8h-2v1.5c0 0.275-0.225 0.5-0.5 0.5h-1c-0.275 0-0.5-0.225-0.5-0.5v-1.5h-6v1.5c0 0.275-0.225 0.5-0.5 0.5h-1c-0.275 0-0.5-0.225-0.5-0.5v-1.5h-2v-1h14v1z"></path>
</svg>

<svg xmlns="http://www.w3.org/2000/svg" width="16" height="16" viewBox="0 0 16 16"><path fill="#444" d="M15 4h-4V3c0-.55-.45-1-1-1H6c-.55 0-1 .45-1 1v1H1c-.55 0-1 .45-1 1v9c0 .55.45 1 1 1h14c.55 0 1-.45 1-1V5c0-.55-.45-1-1-1zm-9-.998L6.002 3h3.996l.002.002V4H6v-.998zM15 8h-2v1.5a.5.5 0 0 1-.5.5h-1a.5.5 0 0 1-.5-.5V8H5v1.5a.5.5 0 0 1-.5.5h-1a.5.5 0 0 1-.5-.5V8H1V7h14v1z"/></svg>
